X:178
T:score257
L:1/8
Q:1/4=96
M:3/4
I:linebreak $
K:C
 (e2- e>f d>e | c2) (.g2 .g2) | (gf) (fe) (ed) | .d2 .B2 .G2 |$ (e2- e>f d>e | c2) (.c'2 .c'2) | %6
 (^g/a/) z (e/f/) z (d/B/) z | c2 z2 z2 |] %8
